X:357
T: Tausendmal gedenk ich dein (4-56), S. 74
N: P0617
O: Lothringen
S: PINCK, Louis: Verklingende Weisen Bd 4, Kassel 1939]
R: Tanzlied, Treue/Untreue, Liebe]
M: 2/2
L: 1/8
K: A
 | C2D2E4A4 | G2F2E2
D2C2D2 | E2c2c4B2c2 | A4z8
B2B2B2e2 | cBAGA2E2
B2B2B2e2 | cBAGF2E2
C2D2 | E2c2c4B2c2 | A4z8

